X: 28
T:Quigley's Reel
M:4/4
R:reel
Q:1/2=120
L:1/4
K:D
A|"D"df/2d/2 "A"c/2d/2e/2c/2|"D"dA zA|"G"B/2A/2G/2F/2 "D"G/2F/2E/2D/2|\
"Em"C/2D/2E/2F/2 "A7"G/2A/2B/2c/2|
"D"df/2d/2 "A"c/2d/2e/2c/2|"D"dA zA/2A/2|"G"B/2A/2G/2F/2 "D"G/2F/2E/2D/2|\
"A"C/2D/2E/2C/2 "D"D::
A/2G/2|"D"FA/2F/2 F/2A/2A/2F/2|"G"GB/2G/2 G/2B/2B/2G/2|"D"FA/2F/2 F/2A/2A/2F/2\
|"A"G/2F/2E/2D/2 "A7"C/2D/2E/2G/2|
"D"FA/2F/2 F/2A/2A/2F/2|"G"GB/2G/2 G/2B/2B/2G/2|\
"D"F/2A/2d/2f/2 "A7"g/2e/2c/2e/2|"D"df d:|
%%newpage
